web/public/betterauth.svg

<svg viewBox="0 0 24 24" xmlns="http://www.w3.org/2000/svg"><path d="m0 3.39v17.22h5.783v-5.55h6.434v-6.121h-6.434v-5.549zm12.217 5.55h5.638v6.122h-5.638v5.548h11.783v-17.219h-11.783z"/></svg>

<svg role="img" viewBox="0 0 24 24" xmlns="http://www.w3.org/2000/svg"><title>Better Auth</title><path d="M0 3.39v17.22h5.783V15.06h6.434V8.939H5.783V3.39ZM12.217 8.94h5.638v6.122h-5.638v5.548H24V3.391H12.217Z"/></svg>
